X: 40134
T: Tie The Ribbons
R: reel
M: 4/4
K: Eminor
|:EBBA ABGB|EBBA F~A3|1 ~f2 eB fedB|defe dBAF:|2 ~f2 eB fedB|defe d3 B||
deed e2 de|fedf e2~e2|f2 ba fbaf|fgfe dBAF|
Beed e2 de|fedf efga|baba fbaf|fgfe dBAF||

